X: 1
T: Madison County Waltz
C: Erynn Marshall
O: Meet Me In The Music
R: waltz
Z: 2020 John Chambers <jc:trillian.mit.edu>
S: https://www.facebook.com/groups/Fiddletuneoftheday/
S: https://www.facebook.com/groups/Fiddletuneoftheday/photos/
M: 3/4
L: 1/8
K: G
D GA |\
"G"(AB2)c BA | GA Bd eg | "D"(ef2)g fe | d2 A2 B2 | "C"(Bc2)c dc |
"G"(AB2)A GA | BAG2 ED | "D"D3D GA | "G"(AB2)c BA | GA Bd eg | "D"(ef3) fg |
(f//g//a/)a g2 fe | "C"c2 ec ec | "G"BA GB AG | "C"(DE2) "D"(EF2) |1 "G"G3 :|2 "G"[G4-G,4-] [G2G,2] ||
"G"(A[B3G3]) [B2G2] | (3BcB A2 G2 | "D"A,2 [D2A,2] [D2A,2] | A,2 D2 DB, | "C"C2 [E2C2] [E2C2] |
"D"D2 [D2A,2] [D2C2] | "G"[D3B,3] [D2B,2] [DA,] | G,A, B,D EG | (A[B3G3]) B2 | (3BcB A2 G2 |
"D"A,2 [D2A,2] [D2A,2] | A,2 D2 DB, | "C"C2 [E2C2] [E2C2] | "D"D2 E2 F2 | "G"(FG2)(F G)A | [G3G,3] |]
